X: 54
T: Day dream
T: Verse
M:4/4
L:1/4
S:Ella Fitzgerald - "Ellington songbook", Ellington - "..and his mother called him Bill", Tommy Flanagan - "The Tokyo recital"
Q:1/4=70
K:F
%%text (ballad)
%%vskip 20
"Fm6"(3ddc_AB/c/ |"Ebmaj77"dd3   |"Dbmaj77"(3ccB F_A/B/ |"C7sus     C7"c4|
w:Fun-ny the way that I feel now Can't keep my feet on the ground
"Fm7"(3BB_A _EF  |"G7/D     Dbo Cm6"GG3| "E7"G>G"Ebm6"B"Db7"B |"C7"G4||
w:Ev-'ry-thing seems un-real now When you're not a-round:
%%newpage

